package/converter/svg/duotone/mug-saucer.svg

<svg xmlns="http://www.w3.org/2000/svg" viewBox="0 0 640 512"><!-- Font Awesome Pro 6.0.0-alpha2 by @fontawesome - https://fontawesome.com License - https://fontawesome.com/license (Commercial License) --><defs><style>.fa-secondary{opacity:.4}</style></defs><path d="M560 416H16C7.164 416 0 423.164 0 432C0 458.508 21.49 480 48 480H528C554.51 480 576 458.508 576 432C576 423.164 568.838 416 560 416Z" class="fa-secondary"/><path d="M512 32H120C106.75 32 96 42.75 96 56V288C96 341 139 384 192 384H384C437 384 480 341 480 288H512C582.625 288 640 230.625 640 160S582.625 32 512 32ZM512 224H480V96H512C547.25 96 576 124.75 576 160S547.25 224 512 224Z" class="fa-primary"/></svg>

<svg xmlns="http://www.w3.org/2000/svg" viewBox="0 0 640 512"><!--! Font Awesome Pro 6.6.0 by @fontawesome - https://fontawesome.com License - https://fontawesome.com/license (Commercial License) Copyright 2024 Fonticons, Inc. --><defs><style>.fa-secondary{opacity:.4}</style></defs><path class="fa-secondary" d="M0 448c0-17.7 14.3-32 32-32l512 0c17.7 0 32 14.3 32 32s-14.3 32-32 32L32 480c-17.7 0-32-14.3-32-32z"/><path class="fa-primary" d="M128 32c-17.7 0-32 14.3-32 32l0 224c0 53 43 96 96 96l192 0c53 0 96-43 96-96l32 0c70.7 0 128-57.3 128-128s-57.3-128-128-128l-64 0L128 32zM480 96l32 0c35.3 0 64 28.7 64 64s-28.7 64-64 64l-32 0 0-128z"/></svg>
